X:1
T:Title
%%score { ( 1 3 ) | 2 }
L:1/8
Q:1/4=90
M:4/8
K:D
V:1 treble nm="Grand Piano"
V:3 treble 
V:2 bass 
V:1
 [A,DF][A,EG][A,FA][A,DF] | [A,CF]>[G,CE] D2 | ABdB | [EA]>[EG] F2 | FF[E^G][EG] | %5
w: J.~W.~Lerman * * *|||||
 [FA]>[^GB][Ac][Ac]/[Ad]/ | [Ae][CEA][=C^DA][B,=D^G] |[M:3/8] [A,CA]3 | %8
w: |||
[M:1/8][K:bass] [F,D]/[G,DE]/ |[M:2/4][K:treble] [A,DF][A,DF] [^A,EF][A,EF] | %10
w: ||
 [B,^DF]3 [B,EG]/[B,FA]/ | [B,GB][B,GB] [B,^DB][B,DB] | [B,EB]3 B/d/ | [Ac][Ac] [Ac][Ac] | %14
w: ||||
 .[Ac]>C CG/A/ | [GB][Bd] [Ac][GB] | [=F^G] [^FA]2 [A,CF]/[K:bass][G,CE]/ | %17
w: |||
 [F,B,D][K:treble][A,CE] [A,DF][A,EA] | [Dd]4[K:bass][K:treble] | [DA][DB] [CF][CE] | D4 |] %21
w: ||||
V:2
 D,D,D,D, | A,,>A,, [D,F,]2 | [D,F,D][D,G,D][D,B,D][D,G,D] | [C,A,]>[C,A,] [D,A,D]2 | %4
 [F,A,C][F,A,C][C,C][C,C] | [F,C]>[F,C][F,C][F,C]/[=F,B,]/ | [E,C]E,E,E, |[M:3/8] A,,3 | %8
[M:1/8] D,/D,/ |[M:2/4] D,D, C,C, | B,,3 E,/E,/ | E,E, A,A, | G,3[K:treble] G/B/ | %13
 E,[G,A,C] A,,[G,A,C] | E,[G,A,C]/[G,A,]/ [G,A,][K:treble]E/F/ | C,[G,A,C] A,,[G,A,C] | %16
 D,/D/A,/F,/ D,A,,/A,,/ | B,,A,, D,C, | [B,,F,]2 z [^G,,=F,] | [A,,F,][A,,F,] [A,,A,][A,,G,] | %20
 [D,F,]4 |] %21
V:3
 x4 | x4 | x4 | x4 | x4 | x4 | x4 |[M:3/8] x3 |[M:1/8][K:bass] x |[M:2/4][K:treble] x4 | x4 | x4 | %12
 x4 | x4 | z .[EG]3 | x4 | x7/2[K:bass] x/ | x[K:treble] x3 | %18
 z2[K:bass] [^G,,=F,][K:treble][Dc]/[DB]/ | x4 | x4 |] %21

